assets/svg/completed.svg

<?xml version="1.0" encoding="UTF-8"?>
<svg width="1000px" height="1000px" viewBox="0 0 1000 1000" version="1.1" xmlns="http://www.w3.org/2000/svg" xmlns:xlink="http://www.w3.org/1999/xlink">
    <!-- Generator: sketchtool 52.4 (67378) - http://www.bohemiancoding.com/sketch -->
    <title>completed</title>
    <desc>Created with sketchtool.</desc>
    <g id="新版图标" stroke="none" stroke-width="1" fill="none" fill-rule="evenodd">
        <g id="completed" fill="#323233" fill-rule="nonzero">
            <g id="圆角-已完成-线">
                <path d="M222.222222,111.111111 L222.222222,888.888889 L777.777778,888.888889 L777.777778,111.111111 C808.460264,111.111111 833.333333,135.984181 833.333333,166.666667 L833.333333,888.888889 C833.333333,919.571375 808.460264,944.444444 777.777778,944.444444 L222.222222,944.444444 C191.539736,944.444444 166.666667,919.571375 166.666667,888.888889 L166.666667,166.666667 C166.666667,135.984181 191.539736,111.111111 222.222222,111.111111 Z M333.591877,546.49584 C333.355802,545.940964 333.282361,545.37035 333.367596,544.84383 C333.14253,541.731753 334.022299,538.563605 336.124915,535.912868 L346.128878,523.301019 C350.229473,518.131459 357.9001,516.833068 363.321756,520.451746 L449.909084,578.244357 C454.476498,581.292871 462.337028,580.895847 466.601436,577.436136 L695.401469,391.810862 C699.781084,388.257683 706.273383,387.988384 710.887647,390.766677 L712.495599,389.431954 C713.40626,388.676036 715.274854,388.76043 715.871552,389.370035 L721.83869,395.466252 C722.448255,396.089003 722.395613,397.263355 721.210382,398.474225 L720.04883,399.660903 C723.529912,404.537634 722.780881,411.303868 718.149744,415.928161 L472.579952,661.135012 C468.259135,665.449443 462.36995,667.217188 456.645681,666.518423 C453.632891,667.072455 450.27531,666.075334 447.751526,663.496956 L446.868589,662.59492 C446.053069,661.989168 445.271034,661.316379 444.530484,660.576924 L337.485185,553.689833 C335.440904,551.648573 334.118374,549.130254 333.591877,546.49584 Z M222.222222,111.111111 L388.888889,111.111111 L388.888889,166.666667 L222.222222,166.666667 L222.222222,111.111111 Z M611.111111,111.111111 L777.777778,111.111111 L777.777778,166.666667 L611.111111,166.666667 L611.111111,111.111111 Z M416.666667,111.111111 C401.325424,111.111111 388.888889,123.547646 388.888889,138.888889 C388.888889,154.230132 401.325424,166.666667 416.666667,166.666667 L583.333333,166.666667 C598.674576,166.666667 611.111111,154.230132 611.111111,138.888889 C611.111111,123.547646 598.674576,111.111111 583.333333,111.111111 L416.666667,111.111111 Z M416.666667,55.5555556 L583.333333,55.5555556 C629.357062,55.5555556 666.666667,92.8651597 666.666667,138.888889 C666.666667,184.912618 629.357062,222.222222 583.333333,222.222222 L416.666667,222.222222 C370.642938,222.222222 333.333333,184.912618 333.333333,138.888889 C333.333333,92.8651597 370.642938,55.5555556 416.666667,55.5555556 Z" id="Rectangle-22"></path>
            </g>
        </g>
    </g>
</svg>

<svg width="1000" height="1000" xmlns="http://www.w3.org/2000/svg"><path d="M222.222 111.111V888.89h555.556V111.11c30.682 0 55.555 24.873 55.555 55.556v722.222c0 30.682-24.873 55.555-55.555 55.555H222.222c-30.682 0-55.555-24.873-55.555-55.555V166.667c0-30.683 24.873-55.556 55.555-55.556zm111.37 435.385a3.001 3.001 0 0 1-.224-1.652 12.777 12.777 0 0 1 2.757-8.931l10.004-12.612c4.1-5.17 11.771-6.468 17.193-2.85l86.587 57.793c4.567 3.049 12.428 2.652 16.692-.808l228.8-185.625c4.38-3.553 10.872-3.823 15.487-1.044l1.608-1.335c.91-.756 2.779-.672 3.376-.062l5.967 6.096c.61.623.557 1.797-.629 3.008l-1.161 1.187c3.48 4.877 2.732 11.643-1.9 16.267L472.58 661.135c-4.32 4.314-10.21 6.082-15.934 5.383-3.013.554-6.37-.443-8.894-3.021l-.883-.902a21.197 21.197 0 0 1-2.339-2.018L337.485 553.69c-2.044-2.041-3.367-4.56-3.893-7.194zM222.222 111.11H388.89v55.556H222.222V111.11zm388.89 0h166.666v55.556H611.11V111.11zm-194.445 0c-15.342 0-27.778 12.437-27.778 27.778s12.436 27.778 27.778 27.778h166.666c15.342 0 27.778-12.437 27.778-27.778s-12.436-27.778-27.778-27.778H416.667zm0-55.555h166.666c46.024 0 83.334 37.31 83.334 83.333 0 46.024-37.31 83.333-83.334 83.333H416.667c-46.024 0-83.334-37.31-83.334-83.333 0-46.024 37.31-83.333 83.334-83.333z" fill="#323233" fill-rule="nonzero"/></svg>
